Papirus/16x16/actions/media-repeat-track-amarok.svg

<?xml version="1.0" encoding="UTF-8" standalone="no"?>
<!--Created with Inkscape (http://www.inkscape.org/)-->
<svg id="svg7384" xmlns:rdf="http://www.w3.org/1999/02/22-rdf-syntax-ns#" style="enable-background:new" xmlns="http://www.w3.org/2000/svg" height="16" width="16" version="1.1" xmlns:cc="http://creativecommons.org/ns#" xmlns:dc="http://purl.org/dc/elements/1.1/">
 <metadata id="metadata90">
  <rdf:RDF>
   <cc:Work rdf:about="">
    <dc:format>image/svg+xml</dc:format>
    <dc:type rdf:resource="http://purl.org/dc/dcmitype/StillImage"/>
   </cc:Work>
  </rdf:RDF>
 </metadata>
 <g id="layer12" transform="translate(-265 119)">
  <rect id="rect4198" style="fill:#5c616c;enable-background:accumulate" height="16" width="16" y="-119" x="265" fill="none"/>
  <rect id="rect3038" style="fill:#5c616c;enable-background:accumulate" height="16" width="16" y="-119" x="265" fill="none"/>
  <path id="path4282" opacity="1" fill="#5c616c" style="fill:#5c616c;enable-background:accumulate" transform="translate(265 -119)" d="m5 2v2h-2.0684c-1.0697 0-1.9316 0.9391-1.9316 2.1055v5.7895c0 1.166 0.8619 2.105 1.9316 2.105h10.136c1.07 0 1.932-0.939 1.932-2.105v-5.7895c0-1.1664-0.862-2.1055-1.932-2.1055h-2.068v2h1.998c-0.002 0.009 0.002 0.0263 0.002 0.1055v5.7895c0 0.079-0.004 0.096-0.002 0.105h-9.9941c0.001-0.009-0.0039-0.026-0.0039-0.105v-5.7895c0-0.0792 0.0049-0.0966 0.0039-0.1055h1.9961v2l4-3-4-3zm5 5v4h1v-4h-1z"/>
 </g>
</svg>

<?xml version="1.0" encoding="UTF-8" standalone="no"?>
<!--Created with Inkscape (http://www.inkscape.org/)-->

<svg
   xmlns:dc="http://purl.org/dc/elements/1.1/"
   xmlns:cc="http://creativecommons.org/ns#"
   xmlns:rdf="http://www.w3.org/1999/02/22-rdf-syntax-ns#"
   xmlns:svg="http://www.w3.org/2000/svg"
   xmlns="http://www.w3.org/2000/svg"
   xmlns:sodipodi="http://sodipodi.sourceforge.net/DTD/sodipodi-0.dtd"
   xmlns:inkscape="http://www.inkscape.org/namespaces/inkscape"
   id="svg7384"
   style="enable-background:new"
   height="16"
   width="16"
   version="1.1"
   inkscape:version="0.91 r13725"
   sodipodi:docname="media-repeat-track-amarok.svg">
  <defs
     id="defs11" />
  <sodipodi:namedview
     pagecolor="#ffffff"
     bordercolor="#666666"
     borderopacity="1"
     objecttolerance="10"
     gridtolerance="10"
     guidetolerance="10"
     inkscape:pageopacity="0"
     inkscape:pageshadow="2"
     inkscape:window-width="1600"
     inkscape:window-height="843"
     id="namedview9"
     showgrid="false"
     inkscape:zoom="14.75"
     inkscape:cx="-2.8813559"
     inkscape:cy="8"
     inkscape:window-x="0"
     inkscape:window-y="0"
     inkscape:window-maximized="1"
     inkscape:current-layer="svg7384" />
  <metadata
     id="metadata90">
    <rdf:RDF>
      <cc:Work
         rdf:about="">
        <dc:format>
                    image/svg+xml
                </dc:format>
        <dc:type
           rdf:resource="http://purl.org/dc/dcmitype/StillImage" />
        <dc:title>
                    Paper Symbolic Icon Theme
                </dc:title>
      </cc:Work>
    </rdf:RDF>
  </metadata>
  <title
     id="title8473">
        Paper Symbolic Icon Theme
    </title>
  <path
     inkscape:connector-curvature="0"
     d="M 5,2 5,4 2.9316,4 C 1.8619,4 1,4.9391 1,6.1055 L 1,11.895 C 1,13.061 1.8619,14 2.9316,14 l 10.136,0 c 1.07,0 1.932,-0.939 1.932,-2.105 l 0,-5.7895 C 14.9996,4.9391 14.1376,4 13.0676,4 l -2.068,0 0,2 1.998,0 c -0.002,0.009 0.002,0.0263 0.002,0.1055 l 0,5.7895 c 0,0.079 -0.004,0.096 -0.002,0.105 L 3.0035,12 C 3.0045,11.991 2.9996,11.974 2.9996,11.895 l 0,-5.7895 C 2.9996,6.0263 3.0045,6.0089 3.0035,6 l 1.9961,0 0,2 4,-3 -4,-3 z m 5,5 0,4 1,0 0,-4 -1,0 z"
     style="color:#000000;opacity:1;enable-background:accumulate;fill:#5c616c;fill-opacity:1"
     id="path4282" />
</svg>
